Newaita-dark/apps/32/sublime-text.svg

<?xml version="1.0" encoding="UTF-8"?>
<svg xmlns="http://www.w3.org/2000/svg" xmlns:xlink="http://www.w3.org/1999/xlink" width="32pt" height="32pt" viewBox="0 0 32 32" version="1.1">
<defs>
<linearGradient id="linear0" gradientUnits="userSpaceOnUse" x1="254" y1="233.5" x2="254" y2="254.666672" gradientTransform="matrix(0.062506,0,0,0.062506,-0.00000381506,13.438785)">
<stop offset="0" style="stop-color:rgb(0%,0%,0%);stop-opacity:0.27451;"/>
<stop offset="1" style="stop-color:rgb(0%,0%,0%);stop-opacity:0;"/>
</linearGradient>
<radialGradient id="radial0" gradientUnits="userSpaceOnUse" cx="450.908936" cy="189.579361" fx="450.908936" fy="189.579361" r="21.166656" gradientTransform="matrix(0.00000017417,-0.0781325,-0.140638,-0.000000101539,53.12293,63.595333)">
<stop offset="0" style="stop-color:rgb(0%,0%,0%);stop-opacity:0.313725;"/>
<stop offset="0.222222" style="stop-color:rgb(0%,0%,0%);stop-opacity:0.27451;"/>
<stop offset="1" style="stop-color:rgb(0%,0%,0%);stop-opacity:0;"/>
</radialGradient>
<radialGradient id="radial1" gradientUnits="userSpaceOnUse" cx="450.908936" cy="189.579361" fx="450.908936" fy="189.579361" r="21.166656" gradientTransform="matrix(-0.00000017417,0.0781325,0.140638,0.000000101539,-21.20452,-7.527479)">
<stop offset="0" style="stop-color:rgb(0%,0%,0%);stop-opacity:0.313725;"/>
<stop offset="0.222222" style="stop-color:rgb(0%,0%,0%);stop-opacity:0.27451;"/>
<stop offset="1" style="stop-color:rgb(0%,0%,0%);stop-opacity:0;"/>
</radialGradient>
<radialGradient id="radial2" gradientUnits="userSpaceOnUse" cx="450.908936" cy="189.579361" fx="450.908936" fy="189.579361" r="21.166656" gradientTransform="matrix(-0.00000017417,-0.0781325,0.140638,-0.000000101539,-21.20452,63.595333)">
<stop offset="0" style="stop-color:rgb(0%,0%,0%);stop-opacity:0.313725;"/>
<stop offset="0.222222" style="stop-color:rgb(0%,0%,0%);stop-opacity:0.27451;"/>
<stop offset="1" style="stop-color:rgb(0%,0%,0%);stop-opacity:0;"/>
</radialGradient>
<radialGradient id="radial3" gradientUnits="userSpaceOnUse" cx="450.908936" cy="189.579361" fx="450.908936" fy="189.579361" r="21.166656" gradientTransform="matrix(0.00000017417,0.0781325,-0.140638,0.000000101539,53.122929,-7.527479)">
<stop offset="0" style="stop-color:rgb(0%,0%,0%);stop-opacity:0.313725;"/>
<stop offset="0.222222" style="stop-color:rgb(0%,0%,0%);stop-opacity:0.27451;"/>
<stop offset="1" style="stop-color:rgb(0%,0%,0%);stop-opacity:0;"/>
</radialGradient>
<linearGradient id="linear1" gradientUnits="userSpaceOnUse" x1="254" y1="233.5" x2="254" y2="-168.666672" gradientTransform="matrix(0.062506,0,0,0.062506,0,13.442659)">
<stop offset="0" style="stop-color:rgb(25.882353%,25.882353%,25.882353%);stop-opacity:1;"/>
<stop offset="1" style="stop-color:rgb(38.039216%,38.039216%,38.039216%);stop-opacity:1;"/>
</linearGradient>
<linearGradient id="linear2" gradientUnits="userSpaceOnUse" x1="254" y1="148.833344" x2="254" y2="-83.999985" gradientTransform="matrix(3.779528,0,0,3.779528,0,812.598389)">
<stop offset="0" style="stop-color:rgb(100%,65.490196%,14.901961%);stop-opacity:1;"/>
<stop offset="1" style="stop-color:rgb(100%,71.764706%,30.196078%);stop-opacity:1;"/>
</linearGradient>
</defs>
<g id="surface1">
<path style=" stroke:none;fill-rule:nonzero;fill:url(#linear0);" d="M 5.125 28.035156 L 26.792969 28.035156 L 26.792969 29.355469 L 5.125 29.355469 Z M 5.125 28.035156 "/>
<path style=" stroke:none;fill-rule:nonzero;fill:url(#radial0);" d="M 26.792969 28.035156 L 29.4375 28.035156 L 29.4375 26.710938 L 26.792969 26.710938 Z M 26.792969 28.035156 "/>
<path style=" stroke:none;fill-rule:nonzero;fill:url(#radial1);" d="M 5.125 28.035156 L 2.480469 28.035156 L 2.480469 29.355469 L 5.125 29.355469 Z M 5.125 28.035156 "/>
<path style=" stroke:none;fill-rule:nonzero;fill:url(#radial2);" d="M 5.125 28.035156 L 2.480469 28.035156 L 2.480469 26.710938 L 5.125 26.710938 Z M 5.125 28.035156 "/>
<path style=" stroke:none;fill-rule:nonzero;fill:url(#radial3);" d="M 26.792969 28.035156 L 29.4375 28.035156 L 29.4375 29.355469 L 26.792969 29.355469 Z M 26.792969 28.035156 "/>
<path style=" stroke:none;fill-rule:nonzero;fill:url(#linear1);" d="M 3.636719 2.898438 L 28.113281 2.898438 C 28.664062 2.898438 29.105469 3.34375 29.105469 3.890625 L 29.105469 27.046875 C 29.105469 27.59375 28.664062 28.039062 28.113281 28.039062 L 3.636719 28.039062 C 3.089844 28.039062 2.644531 27.59375 2.644531 27.046875 L 2.644531 3.890625 C 2.644531 3.34375 3.089844 2.898438 3.636719 2.898438 Z M 3.636719 2.898438 "/>
<path style=" stroke:none;fill-rule:nonzero;fill:rgb(100%,100%,100%);fill-opacity:0.392157;" d="M 3.636719 2.894531 C 3.089844 2.894531 2.644531 3.339844 2.644531 3.886719 L 2.644531 4.054688 C 2.644531 3.503906 3.089844 3.0625 3.636719 3.0625 L 28.113281 3.0625 C 28.664062 3.0625 29.105469 3.503906 29.105469 4.054688 L 29.105469 3.886719 C 29.105469 3.339844 28.664062 2.894531 28.113281 2.894531 Z M 3.636719 2.894531 "/>
<path style=" stroke:none;fill-rule:nonzero;fill:rgb(1.176471%,1.176471%,1.176471%);fill-opacity:0.235294;" d="M 3.636719 28.035156 C 3.089844 28.035156 2.644531 27.589844 2.644531 27.042969 L 2.644531 26.875 C 2.644531 27.425781 3.089844 27.867188 3.636719 27.867188 L 28.113281 27.867188 C 28.664062 27.867188 29.105469 27.425781 29.105469 26.875 L 29.105469 27.042969 C 29.105469 27.589844 28.664062 28.035156 28.113281 28.035156 Z M 3.636719 28.035156 "/>
<path style=" stroke:none;fill-rule:nonzero;fill:rgb(12.941177%,12.941177%,12.941177%);fill-opacity:1;" d="M 3.636719 2.800781 C 3.039062 2.800781 2.550781 3.289062 2.550781 3.886719 L 2.550781 27.042969 C 2.550781 27.640625 3.039062 28.128906 3.636719 28.128906 L 28.113281 28.128906 C 28.714844 28.128906 29.199219 27.640625 29.199219 27.042969 L 29.199219 3.886719 C 29.199219 3.289062 28.714844 2.800781 28.113281 2.800781 Z M 3.636719 2.988281 L 28.113281 2.988281 C 28.613281 2.988281 29.011719 3.390625 29.011719 3.886719 L 29.011719 27.042969 C 29.011719 27.542969 28.613281 27.941406 28.113281 27.941406 L 3.636719 27.941406 C 3.140625 27.941406 2.738281 27.542969 2.738281 27.042969 L 2.738281 3.886719 C 2.738281 3.390625 3.140625 2.988281 3.636719 2.988281 Z M 3.636719 2.988281 "/>
<path style="fill-rule:nonzero;fill:url(#linear2);stroke-width:11.338583;stroke-linecap:round;stroke-linejoin:miter;stroke:rgb(14.901961%,19.607843%,21.960784%);stroke-opacity:1;stroke-miterlimit:4;" d="M 1276.177411 495.070859 C 1267.674285 494.834661 1255.864389 497.432839 1240.039128 501.684401 L 680.013838 688.516963 C 618.366178 716.388319 620.019564 778.98077 620.019564 819.370616 C 620.019564 899.441714 615.059407 926.13208 680.013838 946.208904 L 1025.571408 1061.237295 L 680.013838 1176.501885 L 680.013838 1176.738083 C 610.099251 1203.428449 620.019564 1223.505273 620.019564 1303.340173 C 620.019564 1383.411271 620.019564 1393.567782 680.013838 1376.797729 L 1240.039128 1190.201365 C 1304.993558 1170.124541 1300.033402 1143.434175 1300.033402 1063.363077 C 1300.033402 985.181562 1300.033402 949.043279 1240.039128 932.037028 C 1125.483132 894.717755 1009.509949 855.508899 894.481557 817.244835 L 1240.039128 702.216443 L 1240.039128 701.744047 C 1309.953715 675.053681 1300.033402 655.213055 1300.033402 575.141957 C 1300.033402 516.328673 1300.033402 495.307057 1276.177411 495.070859 Z M 1276.177411 495.070859 " transform="matrix(0.016538,0,0,0.016538,0,0)"/>
</g>
</svg>

<svg xmlns="http://www.w3.org/2000/svg" width="32pt" height="32pt" viewBox="0 0 32 32"><defs><linearGradient id="a" gradientUnits="userSpaceOnUse" x1="254" y1="233.5" x2="254" y2="254.667" gradientTransform="matrix(.0625 0 0 .0625 0 13.439)"><stop offset="0" stop-opacity=".275"/><stop offset="1" stop-opacity="0"/></linearGradient><radialGradient id="b" gradientUnits="userSpaceOnUse" cx="450.909" cy="189.579" fx="450.909" fy="189.579" r="21.167" gradientTransform="matrix(0 -.07813 -.14064 0 53.123 63.595)"><stop offset="0" stop-opacity=".314"/><stop offset=".222" stop-opacity=".275"/><stop offset="1" stop-opacity="0"/></radialGradient><radialGradient id="c" gradientUnits="userSpaceOnUse" cx="450.909" cy="189.579" fx="450.909" fy="189.579" r="21.167" gradientTransform="matrix(0 .07813 .14064 0 -21.205 -7.527)"><stop offset="0" stop-opacity=".314"/><stop offset=".222" stop-opacity=".275"/><stop offset="1" stop-opacity="0"/></radialGradient><radialGradient id="d" gradientUnits="userSpaceOnUse" cx="450.909" cy="189.579" fx="450.909" fy="189.579" r="21.167" gradientTransform="matrix(0 -.07813 .14064 0 -21.205 63.595)"><stop offset="0" stop-opacity=".314"/><stop offset=".222" stop-opacity=".275"/><stop offset="1" stop-opacity="0"/></radialGradient><radialGradient id="e" gradientUnits="userSpaceOnUse" cx="450.909" cy="189.579" fx="450.909" fy="189.579" r="21.167" gradientTransform="matrix(0 .07813 -.14064 0 53.123 -7.527)"><stop offset="0" stop-opacity=".314"/><stop offset=".222" stop-opacity=".275"/><stop offset="1" stop-opacity="0"/></radialGradient><linearGradient id="f" gradientUnits="userSpaceOnUse" x1="254" y1="233.5" x2="254" y2="-168.667" gradientTransform="matrix(.0625 0 0 .0625 0 13.443)"><stop offset="0" stop-color="#424242"/><stop offset="1" stop-color="#616161"/></linearGradient><linearGradient id="g" gradientUnits="userSpaceOnUse" x1="254" y1="148.833" x2="254" y2="-84" gradientTransform="matrix(3.77953 0 0 3.77953 0 812.598)"><stop offset="0" stop-color="#ffa726"/><stop offset="1" stop-color="#ffb74d"/></linearGradient></defs><path d="M5.125 28.035h21.668v1.32H5.125zm0 0" fill="url(#a)"/><path d="M26.793 28.035h2.645v-1.324h-2.645zm0 0" fill="url(#b)"/><path d="M5.125 28.035H2.48v1.32h2.645zm0 0" fill="url(#c)"/><path d="M5.125 28.035H2.48v-1.324h2.645zm0 0" fill="url(#d)"/><path d="M26.793 28.035h2.645v1.32h-2.645zm0 0" fill="url(#e)"/><path d="M3.637 2.898h24.476c.551 0 .992.446.992.993v23.156a.991.991 0 0 1-.992.992H3.637a.994.994 0 0 1-.992-.992V3.89c0-.547.445-.993.992-.993zm0 0" fill="url(#f)"/><path d="M3.637 2.895a.994.994 0 0 0-.992.992v.168c0-.551.445-.992.992-.992h24.476c.551 0 .992.44.992.992v-.168a.991.991 0 0 0-.992-.992zm0 0" fill="#fff" fill-opacity=".392"/><path d="M3.637 28.035a.994.994 0 0 1-.992-.992v-.168c0 .55.445.992.992.992h24.476c.551 0 .992-.441.992-.992v.168a.991.991 0 0 1-.992.992zm0 0" fill="#030303" fill-opacity=".235"/><path d="M3.637 2.8c-.598 0-1.086.49-1.086 1.087v23.156c0 .598.488 1.086 1.086 1.086h24.476c.602 0 1.086-.488 1.086-1.086V3.887c0-.598-.484-1.086-1.086-1.086zm0 .188h24.476c.5 0 .899.403.899.899v23.156c0 .5-.399.898-.899.898H3.637a.896.896 0 0 1-.899-.898V3.887c0-.496.403-.899.899-.899zm0 0" fill="#212121"/><path d="M1276.177 495.07c-8.503-.235-20.313 2.363-36.138 6.614L680.014 688.517c-61.648 27.871-59.994 90.464-59.994 130.854 0 80.07-4.96 106.761 59.994 126.838l345.557 115.028-345.557 115.265v.236c-69.915 26.69-59.994 46.767-59.994 126.602 0 80.071 0 90.228 59.994 73.458l560.025-186.597c64.955-20.076 59.994-46.767 59.994-126.838 0-78.181 0-114.32-59.994-131.326-114.556-37.32-230.53-76.528-345.557-114.792l345.557-115.029v-.472c69.915-26.69 59.994-46.53 59.994-126.602 0-58.813 0-79.835-23.856-80.071zm0 0" transform="rotate(.891) scale(.01654)" fill="url(#g)" stroke-width="11.339" stroke-linecap="round" stroke="#263238"/></svg>
